icons/1_Primary/Gandi.svg

<svg xmlns="http://www.w3.org/2000/svg" width="1024" height="1024" fill="none">
   <g clip-path="url(#a)">
      <path fill="#98DC9A" d="M512 1024c282.77 0 512-229.23 512-512S794.77 0 512 0 0 229.23 0 512s229.23 512 512 512Z"/>
      <path fill="#fff" d="M657.17 374.43a31.905 31.905 0 0 0-35.444-.986A31.905 31.905 0 0 0 612.68 382c-12.5 17.67-26.34 30.77-42.09 39.82a110.605 110.605 0 0 1-4.41 2.4c-1.37.71-2.76 1.39-4.16 2-14.7 6.81-31.08 10.39-50 11-18.93-.57-35.32-4.15-50-11-19.37-9-35.94-23.45-50.67-44.26a31.911 31.911 0 0 0-44.485-7.615 31.915 31.915 0 0 0-7.615 44.485c21 29.73 46.59 51.7 75.94 65.3a173.658 173.658 0 0 0 17.67 7.05c-24.93 18-51.88 43.23-64.79 77.82-13.4 35.9-13.23 74.76.47 109.44 13.11 33.35 37.46 60.41 68.46 76.27 34.58 17.68 78.6 17.72 117.75.09 41.08-18.49 67.88-52.35 71.69-90.59 4-40.25-15.3-76.08-49.17-91.3-35.08-15.76-74.66-4.51-100.82 28.64a31.896 31.896 0 0 0-6.642 23.504 31.903 31.903 0 0 0 11.922 21.316 31.921 31.921 0 0 0 23.504 6.643 31.914 31.914 0 0 0 21.316-11.923c7.77-9.85 16.73-13.48 24.58-10 6.69 3 13.29 11.62 11.79 26.76-1.5 15-14.67 29.83-34.37 38.7-21.32 9.59-45.28 10.08-62.51 1.27-17.23-8.81-30.77-24-38.2-42.82-5.58-14.12-10.12-36.64 0-63.66 7.57-20.26 26.64-39.38 60-60.15 14.17-8.82 29.37-17 44.06-25 16.95-9.17 33-17.86 47.11-27.18 25.1-13.73 47.18-33.92 65.75-60.16a31.91 31.91 0 0 0-7.61-44.48l.02.06Zm-162.24-60.08a21.644 21.644 0 0 1 27.325-2.688 21.645 21.645 0 0 1 7.967 26.276 21.64 21.64 0 0 1-41.632-8.288 21.488 21.488 0 0 1 6.34-15.3Zm15.3 89a73.658 73.658 0 0 0 64.978-108.374A73.661 73.661 0 0 0 449 288.76a73.655 73.655 0 0 0 9.15 93.01 73.166 73.166 0 0 0 52.08 21.54v.04Z"/>
   </g>
   <defs>
      <clipPath id="a">
         <path fill="#fff" d="M0 0h1024v1024H0z"/>
      </clipPath>
   </defs>
</svg>

<svg width="1024" height="1024" viewBox="0 0 1024 1024" fill="none" xmlns="http://www.w3.org/2000/svg">
<g clip-path="url(#clip0_2_2262)">
<path d="M512 1024C794.77 1024 1024 794.77 1024 512C1024 229.23 794.77 0 512 0C229.23 0 0 229.23 0 512C0 794.77 229.23 1024 512 1024Z" fill="#98DC9A"/>
<path d="M657.17 374.43C653.752 372.006 649.889 370.279 645.804 369.347C641.718 368.415 637.488 368.298 633.357 369.001C629.226 369.704 625.273 371.213 621.726 373.444C618.178 375.674 615.104 378.582 612.68 382C600.18 399.67 586.34 412.77 570.59 421.82C569.137 422.654 567.667 423.454 566.18 424.22C564.81 424.93 563.42 425.61 562.02 426.22C547.32 433.03 530.94 436.61 512.02 437.22C493.09 436.65 476.7 433.07 462.02 426.22C442.65 417.22 426.08 402.77 411.35 381.96C406.461 375.051 399.027 370.368 390.685 368.94C382.342 367.512 373.774 369.456 366.865 374.345C359.956 379.235 355.272 386.668 353.844 395.011C352.416 403.353 354.361 411.921 359.25 418.83C380.25 448.56 405.84 470.53 435.19 484.13C440.947 486.801 446.846 489.155 452.86 491.18C427.93 509.18 400.98 534.41 388.07 569C374.67 604.9 374.84 643.76 388.54 678.44C401.65 711.79 426 738.85 457 754.71C491.58 772.39 535.6 772.43 574.75 754.8C615.83 736.31 642.63 702.45 646.44 664.21C650.44 623.96 631.14 588.13 597.27 572.91C562.19 557.15 522.61 568.4 496.45 601.55C493.854 604.84 491.931 608.609 490.791 612.641C489.651 616.674 489.317 620.892 489.808 625.054C490.298 629.216 491.603 633.24 493.649 636.898C495.694 640.555 498.44 643.774 501.73 646.37C505.02 648.966 508.788 650.889 512.821 652.029C516.854 653.169 521.072 653.503 525.234 653.013C529.395 652.522 533.42 651.217 537.078 649.172C540.735 647.126 543.954 644.38 546.55 641.09C554.32 631.24 563.28 627.61 571.13 631.09C577.82 634.09 584.42 642.71 582.92 657.85C581.42 672.85 568.25 687.68 548.55 696.55C527.23 706.14 503.27 706.63 486.04 697.82C468.81 689.01 455.27 673.82 447.84 655C442.26 640.88 437.72 618.36 447.84 591.34C455.41 571.08 474.48 551.96 507.84 531.19C522.01 522.37 537.21 514.19 551.9 506.19C568.85 497.02 584.9 488.33 599.01 479.01C624.11 465.28 646.19 445.09 664.76 418.85C669.649 411.943 671.594 403.376 670.167 395.034C668.74 386.693 664.057 379.26 657.15 374.37L657.17 374.43ZM494.93 314.35C498.471 310.811 503.129 308.608 508.112 308.118C513.094 307.628 518.092 308.88 522.255 311.662C526.417 314.444 529.486 318.584 530.939 323.375C532.392 328.166 532.138 333.313 530.222 337.938C528.305 342.563 524.844 346.381 520.428 348.74C516.013 351.1 510.915 351.855 506.005 350.877C501.095 349.9 496.675 347.25 493.5 343.379C490.324 339.509 488.589 334.657 488.59 329.65C488.582 326.807 489.139 323.991 490.227 321.365C491.315 318.739 492.914 316.354 494.93 314.35ZM510.23 403.35C527.272 403.353 543.787 397.446 556.962 386.637C570.137 375.828 579.157 360.784 582.484 344.071C585.811 327.357 583.239 310.006 575.208 294.976C567.176 279.945 554.182 268.165 538.438 261.641C522.694 255.117 505.176 254.254 488.867 259.199C472.559 264.144 458.469 274.591 449 288.76C439.53 302.928 435.266 319.942 436.935 336.902C438.603 353.862 446.101 369.719 458.15 381.77C464.976 388.625 473.094 394.058 482.033 397.756C490.972 401.453 500.556 403.341 510.23 403.31V403.35Z" fill="white"/>
</g>
<defs>
<clipPath id="clip0_2_2262">
<rect width="1024" height="1024" fill="white"/>
</clipPath>
</defs>
</svg>
